COLOR/mimes 16/16/text-x-gettext-translation.svg

<svg height="16" viewBox="0 0 4.233125 4.233125" width="16" xmlns="http://www.w3.org/2000/svg" xmlns:xlink="http://www.w3.org/1999/xlink"><linearGradient id="a" gradientUnits="userSpaceOnUse" x1="328" x2="328" y1="237" y2="251"><stop offset="0" stop-color="#fff"/><stop offset=".125" stop-color="#fff" stop-opacity=".098039"/><stop offset=".92500001" stop-color="#fff" stop-opacity=".098039"/><stop offset="1" stop-color="#fff" stop-opacity=".498039"/></linearGradient><clipPath id="b"><path d="m325.09646 237c-2.80769 0-3.10979.28839-3.09603 3.10176v3.89824 3.89824c-.0138 2.81337.28834 3.10176 3.09603 3.10176h5.8075c2.8077 0 3.09604-.28835 3.09604-3.10176v-3.89824-3.89824c0-2.8134-.28835-3.10176-3.09604-3.10176z"/></clipPath><filter id="c" color-interpolation-filters="sRGB" height="1.12" width="1.12" x="-.06" y="-.06"><feGaussianBlur stdDeviation=".5"/></filter><filter id="d" color-interpolation-filters="sRGB" height="1.072" width="1.072" x="-.036" y="-.036"><feGaussianBlur stdDeviation=".3"/></filter><linearGradient id="e" gradientTransform="matrix(0 -.00953618 .00953591 0 -.942985 4.473643)" gradientUnits="userSpaceOnUse" x1="459.03448" x2="35.310345" y1="419.23337" y2="207.36522"><stop offset="0" stop-color="#f2f2f2"/><stop offset="1" stop-color="#f9f9f9"/></linearGradient><path d="m1.3483185.26457033c-.1902366 0-.3444309.003678-.48573256.0273883-.14130436.023732-.28264046.0730955-.39065659.18085764-.10801348.10775949-.15783472.24955066-.18137354.39116985-.0235468.14162178-.0267719.29644568-.0258485.48728558v.7652908 1.0314115c-.00079371.1900038.002381.3445631.0258485.4857352.0235468.1416192.0733574.2834104.18137354.3911699.10801613.1077621.24935223.1571389.39065659.1808576.14130166.023732.29549596.027388.48573256.027388h1.5367831c.1902367 0 .3440949-.00362.4852167-.027388.1411245-.0237584.2824765-.0735294.3901381-.1813736.1076616-.1078441.1571653-.249413.1808576-.3906539.0236949-.1412435.0273883-.2951308.0273883-.4857352v-1.0314115-.7668412c0-.1906044-.0037-.3444917-.027388-.48573518-.0236794-.14124086-.0731963-.28280979-.1808579-.39065394s-.2490136-.1576257-.3901381-.18137353c-.1411218-.02375048-.29498-.02738832-.4852167-.02738832z" opacity=".1"/><path d="m1.3485196.26457033c-.74283143 0-.82275813.0762994-.81911763.82063357v1.0313586 1.0313586c-.003651.7443342.0762862.8206336.81911763.8206336h1.5364921c.7428341 0 .8191203-.076289.8191203-.8206336v-1.0313586-1.0313586c0-.74434207-.076289-.82063357-.8191203-.82063357z" fill="none" opacity=".2" stroke="#000" stroke-width=".529141"/><path d="m1.3485196.26457033c-.74283143 0-.82275813.0762994-.81911763.82063357v1.0313586 1.0313586c-.003651.7443342.0762862.8206336.81911763.8206336h1.5364921c.7428341 0 .8191203-.076289.8191203-.8206336v-1.0313586-1.0313586c0-.74434207-.076289-.82063357-.8191203-.82063357z" fill="url(#e)"/><path d="m75.705204 5.6935447h16c1.108 0 2 .892 2 2.0000001v16.0000002c0 1.108-.892 2-2 2h-16c-1.108 0-2-.892-2-2v-16.0000002c0-1.1080001.892-2.0000001 2-2.0000001z" filter="url(#d)" opacity=".15" stroke="#000" stroke-linejoin="round" stroke-opacity=".294" transform="matrix(.09342007 0 0 .09342007 -6.254813 1.148942)"/><path d="m.8175693 1.6808311h1.4947217c.1035079 0 .1868422.083329.1868422.1868422v1.4947217c0 .1035078-.083334.1868396-.1868422.1868396h-1.4947217c-.10351049 0-.18683955-.083332-.18683955-.1868396v-1.4947217c0-.1035132.0833291-.1868422.18683955-.1868422z" fill="#e6e6e6" stroke-width=".09342"/><path d="m87.705204-6.3064551c-1.108 0-2 .892-2 2v16.0000001c0 1.108.892 2 2 2h15.999996c1.108 0 2-.892 2-2v-16.0000001c0-1.108-.892-2-2-2z" fill="#074271" filter="url(#c)" opacity=".15" stroke="#0b5fa1" stroke-linejoin="round" transform="matrix(.09342007 0 0 .09342007 -6.254813 1.148942)"/><path d="m1.9386119.55979376c-.1035105 0-.1868422.0833291-.1868422.18683691v1.49472173c0 .1035105.083332.1868422.1868422.1868422h1.4947191c.1035105 0 .1868396-.083332.1868396-.1868422v-1.49472173c0-.10350784-.083329-.18683691-.1868396-.18683691z" fill="#44a5f3" stroke-width=".09342"/><path d="m2.617957.84920987v.20403923h-.5441073v.1360288h.225062c.080951.2089603.1803735.3861695.2975067.5307916-.1362775.1411509-.2940144.2360179-.4735015.2880615l.037889.1306448c.1994597-.0578298.374846-.1644675.5251669-.3179844.1503209.1535169.325702.2601546.5251615.3179844l.0378838-.1306448c-.1794818-.0520383-.3372186-.1469106-.4735015-.2880615.1171359-.1446221.2165588-.3218339.297512-.5307916h.225062v-.1360288h-.54411v-.20403923zm-.1726771.34006803h.4813752c-.069053.1681265-.1492706.3101294-.240685.4274901-.091412-.1173607-.171632-.2593636-.2406902-.4274901z" fill="#fff"/><path d="m1.9651721 3.2526592c-.0208217-.0552079-.0404792-.1091829-.0588907-.1619329-.0184141-.0539803-.0374182-.1041481-.057036-.159356h-.5778216l-.1159347.3212889h-.18585801c.04907251-.1349468.09507601-.2594668.13801571-.3735574.0429319-.1153183.0846467-.2245038.1251312-.3275566.0417148-.1030501.0828079-.2011925.1232924-.2944297.0404846-.0944622.0828132-.1876968.1269752-.2797117h.163777c.044162.092015.086488.1852495.1269699.2797117.040485.093237.080972.1913796.1214563.2944297.041715.1030528.084036.2122383.1269753.3275566.042927.1140906.088941.2386106.1380104.3735574zm-.1674598-.467591c-.039249-.106733-.0785112-.2151168-.1177734-.3144895-.0380241-.1005975-.0779001-.1969011-.119607-.2889107-.0429371.0920096-.0840381.1883132-.1232977.2889107-.038024.0993727-.0760613.2077565-.1140906.3144895z" fill="#77767b"/><path d="m2.1167101.26457033v3.70398437h.7683915c.7428341 0 .8190304-.076236.8190304-.8205807v-1.0314115-1.0314115c0-.74434209-.076199-.82058067-.8190304-.82058067z" fill="#fff" opacity=".2"/><path d="m.5292882 2.1165625v1.0314115c-.003651.7443342.0761989.8205807.8190303.8205807h1.5367831c.7428341 0 .8190304-.076236.8190304-.8205807v-1.0314115z" fill="#fff" opacity=".2"/><path clip-path="url(#b)" d="m325.09646 237c-2.80769 0-3.10979.28839-3.09603 3.10176v3.89824 3.89824c-.0138 2.81337.28834 3.10176 3.09603 3.10176h5.8075c2.8077 0 3.09604-.28835 3.09604-3.10176v-3.89824-3.89824c0-2.8134-.28835-3.10176-3.09604-3.10176z" fill="none" opacity=".4" stroke="url(#a)" stroke-width="2" transform="matrix(.26457031 0 0 .26457031 -84.662352 -62.438594)"/></svg>

<?xml version="1.0" encoding="UTF-8" standalone="no"?>
<svg
   xmlns:dc="http://purl.org/dc/elements/1.1/"
   xmlns:cc="http://creativecommons.org/ns#"
   xmlns:rdf="http://www.w3.org/1999/02/22-rdf-syntax-ns#"
   xmlns:svg="http://www.w3.org/2000/svg"
   xmlns="http://www.w3.org/2000/svg"
   xmlns:xlink="http://www.w3.org/1999/xlink"
   xmlns:sodipodi="http://sodipodi.sourceforge.net/DTD/sodipodi-0.dtd"
   xmlns:inkscape="http://www.inkscape.org/namespaces/inkscape"
   width="16"
   height="16"
   version="1.1"
   viewBox="0 0 4.233125 4.233125"
   id="svg41"
   sodipodi:docname="text-x-gettext-translation.svg"
   inkscape:version="0.92.4 (5da689c313, 2019-01-14)">
  <metadata
     id="metadata45">
    <rdf:RDF>
      <cc:Work
         rdf:about="">
        <dc:format>image/svg+xml</dc:format>
        <dc:type
           rdf:resource="http://purl.org/dc/dcmitype/StillImage" />
        <dc:title />
      </cc:Work>
    </rdf:RDF>
  </metadata>
  <sodipodi:namedview
     pagecolor="#ffffff"
     bordercolor="#666666"
     borderopacity="1"
     objecttolerance="10"
     gridtolerance="10"
     guidetolerance="10"
     inkscape:pageopacity="0"
     inkscape:pageshadow="2"
     inkscape:window-width="1920"
     inkscape:window-height="1016"
     id="namedview43"
     showgrid="false"
     inkscape:zoom="52.4375"
     inkscape:cx="4.3766389"
     inkscape:cy="8"
     inkscape:window-x="0"
     inkscape:window-y="27"
     inkscape:window-maximized="1"
     inkscape:current-layer="svg41" />
  <defs
     id="defs17">
    <linearGradient
       id="linearGradient4226"
       x1="529.65503"
       x2="-35.310001"
       y1="401.58401"
       y2="119.093"
       gradientTransform="matrix(0,-0.11988932,-0.11988589,0,67.016455,292.81288)"
       gradientUnits="userSpaceOnUse">
      <stop
         style="stop-color:#d24625"
         offset="0"
         id="stop2" />
      <stop
         style="stop-color:#ec532f"
         offset="1"
         id="stop4" />
    </linearGradient>
    <linearGradient
       id="linearGradient4358"
       x1="88"
       x2="488"
       y1="88"
       y2="488"
       gradientUnits="userSpaceOnUse">
      <stop
         style="stop-color:#000000;stop-opacity:.58823532"
         offset="0"
         id="stop7" />
      <stop
         style="stop-color:#000000;stop-opacity:0"
         offset=".88"
         id="stop9" />
      <stop
         style="stop-color:#000000"
         offset="1"
         id="stop11" />
    </linearGradient>
    <filter
       id="filter4346"
       width="1.026"
       height="1.022"
       x="-0.0099999998"
       y="-0.0099999998"
       style="color-interpolation-filters:sRGB">
      <feGaussianBlur
         stdDeviation="2.12"
         id="feGaussianBlur14" />
    </filter>
    <filter
       style="color-interpolation-filters:sRGB"
       id="b"
       x="-0.059999999"
       y="-0.059999999"
       width="1.12"
       height="1.12">
      <feGaussianBlur
         stdDeviation="0.5"
         id="feGaussianBlur8" />
    </filter>
    <filter
       style="color-interpolation-filters:sRGB"
       id="c"
       x="-0.035999998"
       y="-0.035999998"
       width="1.072"
       height="1.072">
      <feGaussianBlur
         stdDeviation="0.3"
         id="feGaussianBlur5" />
    </filter>
    <linearGradient
       inkscape:collect="always"
       xlink:href="#linearGradient927"
       id="linearGradient993"
       x1="328"
       y1="237"
       x2="328"
       y2="251"
       gradientUnits="userSpaceOnUse" />
    <linearGradient
       inkscape:collect="always"
       id="linearGradient927">
      <stop
         style="stop-color:#ffffff;stop-opacity:1;"
         offset="0"
         id="stop923" />
      <stop
         id="stop933"
         offset="0.125"
         style="stop-color:#ffffff;stop-opacity:0.09803922" />
      <stop
         id="stop931"
         offset="0.92500001"
         style="stop-color:#ffffff;stop-opacity:0.09803922" />
      <stop
         style="stop-color:#ffffff;stop-opacity:0.49803922"
         offset="1"
         id="stop925" />
    </linearGradient>
    <clipPath
       clipPathUnits="userSpaceOnUse"
       id="clipPath983">
      <path
         sodipodi:nodetypes="scccssscsss"
         inkscape:connector-curvature="0"
         id="path985"
         d="m 325.09646,237 c -2.80769,0 -3.10979,0.28839 -3.09603,3.10176 V 244 v 3.89824 c -0.0138,2.81337 0.28834,3.10176 3.09603,3.10176 h 5.8075 C 333.71166,251 334,250.71165 334,247.89824 V 244 240.10176 C 334,237.28836 333.71165,237 330.90396,237 Z"
         style="color:#000000;display:inline;overflow:visible;visibility:visible;opacity:1;fill:#46a926;fill-opacity:1;fill-rule:nonzero;stroke:none;stroke-width:2;stroke-miterlimit:4;stroke-dasharray:none;stroke-opacity:1;marker:none;enable-background:accumulate" />
    </clipPath>
    <filter
       style="color-interpolation-filters:sRGB"
       id="b-3-2-1-9"
       x="-0.059999999"
       y="-0.059999999"
       width="1.12"
       height="1.12">
      <feGaussianBlur
         stdDeviation="0.5"
         id="feGaussianBlur8-6-7-8-2" />
    </filter>
    <filter
       style="color-interpolation-filters:sRGB"
       id="c-7-0-7-2"
       x="-0.035999998"
       y="-0.035999998"
       width="1.072"
       height="1.072">
      <feGaussianBlur
         stdDeviation="0.3"
         id="feGaussianBlur5-5-9-9-8" />
    </filter>
    <linearGradient
       inkscape:collect="always"
       xlink:href="#linearGradient4338"
       id="linearGradient920"
       gradientUnits="userSpaceOnUse"
       gradientTransform="matrix(0,-0.00953618,0.00953591,0,-0.94298469,4.4736432)"
       x1="459.03448"
       y1="419.23337"
       x2="35.310345"
       y2="207.36522" />
    <linearGradient
       inkscape:collect="always"
       id="linearGradient4338">
      <stop
         style="stop-color:#f2f2f2;stop-opacity:1"
         offset="0"
         id="stop4340" />
      <stop
         style="stop-color:#f9f9f9;stop-opacity:1"
         offset="1"
         id="stop4342" />
    </linearGradient>
  </defs>
  <path
     style="color:#000000;font-style:normal;font-variant:normal;font-weight:normal;font-stretch:normal;font-size:medium;line-height:normal;font-family:sans-serif;font-variant-ligatures:normal;font-variant-position:normal;font-variant-caps:normal;font-variant-numeric:normal;font-variant-alternates:normal;font-feature-settings:normal;text-indent:0;text-align:start;text-decoration:none;text-decoration-line:none;text-decoration-style:solid;text-decoration-color:#000000;letter-spacing:normal;word-spacing:normal;text-transform:none;writing-mode:lr-tb;direction:ltr;text-orientation:mixed;dominant-baseline:auto;baseline-shift:baseline;text-anchor:start;white-space:normal;shape-padding:0;clip-rule:nonzero;display:inline;overflow:visible;visibility:visible;opacity:0.1;isolation:auto;mix-blend-mode:normal;color-interpolation:sRGB;color-interpolation-filters:linearRGB;solid-color:#000000;solid-opacity:1;vector-effect:none;fill:#000000;fill-opacity:1;fill-rule:nonzero;stroke:none;stroke-width:0.52914065;stroke-linecap:butt;stroke-linejoin:miter;stroke-miterlimit:4;stroke-dasharray:none;stroke-dashoffset:0;stroke-opacity:1;marker:none;color-rendering:auto;image-rendering:auto;shape-rendering:auto;text-rendering:auto;enable-background:accumulate"
     d="m 1.3483185,0.26457033 c -0.1902366,0 -0.3444309,0.003678 -0.48573256,0.0273883 C 0.72128158,0.31569063 0.57994548,0.36505413 0.47192935,0.47281627 0.36391587,0.58057576 0.31409463,0.72236693 0.29055581,0.86398612 0.26700901,1.0056079 0.26378391,1.1604318 0.26470731,1.3512717 V 2.1165625 3.147974 c -7.9371e-4,0.1900038 0.002381,0.3445631 0.0258485,0.4857352 0.0235468,0.1416192 0.0733574,0.2834104 0.18137354,0.3911699 0.10801613,0.1077621 0.24935223,0.1571389 0.39065659,0.1808576 0.14130166,0.023732 0.29549596,0.027388 0.48573256,0.027388 h 1.5367831 c 0.1902367,0 0.3440949,-0.00362 0.4852167,-0.027388 C 3.5114428,4.1819783 3.6527948,4.1322073 3.7604564,4.0243631 3.868118,3.916519 3.9176217,3.7749501 3.941314,3.6337092 3.9650089,3.4924657 3.9687023,3.3385784 3.9687023,3.147974 V 2.1165625 1.3497213 c 0,-0.1906044 -0.0037,-0.3444917 -0.027388,-0.48573518 C 3.9176349,0.72274526 3.868118,0.58117633 3.7604564,0.47333218 3.6527948,0.36548803 3.5114428,0.31570648 3.3703183,0.29195865 3.2291965,0.26820817 3.0753383,0.26457033 2.8851016,0.26457033 Z"
     id="path997"
     inkscape:connector-curvature="0"
     sodipodi:nodetypes="scscccccccsscscscscscss" />
  <path
     sodipodi:nodetypes="scccssscsss"
     inkscape:connector-curvature="0"
     id="path928"
     d="m 1.3485196,0.26457033 c -0.74283143,0 -0.82275813,0.0762994 -0.81911763,0.82063357 v 1.0313586 1.0313586 c -0.003651,0.7443342 0.0762862,0.8206336 0.81911763,0.8206336 h 1.5364921 c 0.7428341,0 0.8191203,-0.076289 0.8191203,-0.8206336 V 2.1165625 1.0852039 c 0,-0.74434207 -0.076289,-0.82063357 -0.8191203,-0.82063357 z"
     style="color:#000000;display:inline;overflow:visible;visibility:visible;opacity:0.2;fill:none;fill-opacity:1;fill-rule:nonzero;stroke:#000000;stroke-width:0.52914065;stroke-miterlimit:4;stroke-dasharray:none;stroke-opacity:1;marker:none;enable-background:accumulate" />
  <path
     style="color:#000000;display:inline;overflow:visible;visibility:visible;fill:url(#linearGradient920);fill-opacity:1;fill-rule:nonzero;stroke:none;stroke-width:0.26457033;marker:none;enable-background:accumulate"
     d="m 1.3485196,0.26457033 c -0.74283143,0 -0.82275813,0.0762994 -0.81911763,0.82063357 v 1.0313586 1.0313586 c -0.003651,0.7443342 0.0762862,0.8206336 0.81911763,0.8206336 h 1.5364921 c 0.7428341,0 0.8191203,-0.076289 0.8191203,-0.8206336 V 2.1165625 1.0852039 c 0,-0.74434207 -0.076289,-0.82063357 -0.8191203,-0.82063357 z"
     id="path918"
     inkscape:connector-curvature="0"
     sodipodi:nodetypes="scccssscsss" />
  <path
     style="display:inline;opacity:0.15;stroke:#000000;stroke-linejoin:round;stroke-opacity:0.294;filter:url(#c-7-0-7-2);enable-background:new"
     inkscape:connector-curvature="0"
     d="m 75.705204,5.6935447 h 16 c 1.108,0 2,0.892 2,2.0000001 V 23.693545 c 0,1.108 -0.892,2 -2,2 h -16 c -1.108,0 -2,-0.892 -2,-2 V 7.6935448 c 0,-1.1080001 0.892,-2.0000001 2,-2.0000001 z"
     id="path25-3-3-2-9"
     transform="matrix(0.09342007,0,0,0.09342007,-6.2548131,1.1489416)" />
  <path
     style="display:inline;fill:#e6e6e6;stroke-width:0.09342005;enable-background:new"
     inkscape:connector-curvature="0"
     d="M 0.8175693,1.6808311 H 2.312291 c 0.1035079,0 0.1868422,0.083329 0.1868422,0.1868422 V 3.362395 c 0,0.1035078 -0.083334,0.1868396 -0.1868422,0.1868396 H 0.8175693 c -0.10351049,0 -0.18683955,-0.083332 -0.18683955,-0.1868396 V 1.8676733 c 0,-0.1035132 0.0833291,-0.1868422 0.18683955,-0.1868422 z"
     id="path27-5-6-0-7" />
  <path
     style="color:#000000;display:inline;opacity:0.15;fill:#074271;stroke:#0b5fa1;stroke-linejoin:round;filter:url(#b-3-2-1-9);enable-background:new"
     inkscape:connector-curvature="0"
     d="m 87.705204,-6.3064551 c -1.108,0 -2,0.892 -2,2 V 11.693545 c 0,1.108 0.892,2 2,2 H 103.7052 c 1.108,0 2,-0.892 2,-2 V -4.3064551 c 0,-1.108 -0.892,-2 -2,-2 z"
     id="path31-6-0-2-3"
     transform="matrix(0.09342007,0,0,0.09342007,-6.2548131,1.1489416)" />
  <path
     style="color:#000000;display:inline;fill:#44a5f3;stroke-width:0.09342005;enable-background:new"
     inkscape:connector-curvature="0"
     d="m 1.9386119,0.55979376 c -0.1035105,0 -0.1868422,0.0833291 -0.1868422,0.18683691 V 2.2413524 c 0,0.1035105 0.083332,0.1868422 0.1868422,0.1868422 H 3.433331 c 0.1035105,0 0.1868396,-0.083332 0.1868396,-0.1868422 V 0.74663067 c 0,-0.10350784 -0.083329,-0.18683691 -0.1868396,-0.18683691 z"
     id="path33-2-6-3-6" />
  <path
     style="display:inline;opacity:1;fill:#ffffff;fill-opacity:1;stroke:none;stroke-width:0.06801355;stroke-linecap:round;stroke-linejoin:miter;stroke-miterlimit:4;stroke-dasharray:none;stroke-dashoffset:0;stroke-opacity:1;marker:none;enable-background:new"
     d="M 2.617957,0.84920987 V 1.0532491 H 2.0738497 v 0.1360288 h 0.225062 C 2.3798627,1.3982382 2.4792852,1.5754474 2.5964184,1.7200695 2.4601409,1.8612204 2.302404,1.9560874 2.1229169,2.008131 l 0.037889,0.1306448 C 2.3602656,2.080946 2.5356519,1.9743083 2.6859728,1.8207914 2.8362937,1.9743083 3.0116748,2.080946 3.2111343,2.1387758 L 3.2490181,2.008131 C 3.0695363,1.9560927 2.9117995,1.8612204 2.7755166,1.7200695 2.8926525,1.5754474 2.9920754,1.3982356 3.0730286,1.1892779 h 0.225062 V 1.0532491 h -0.54411 V 0.84920987 Z M 2.4452799,1.1892779 H 2.9266551 C 2.8576021,1.3574044 2.7773845,1.4994073 2.6859701,1.616768 2.5945581,1.4994073 2.5143381,1.3574044 2.4452799,1.1892779 Z"
     id="rect36292-9-2-7-1"
     inkscape:connector-curvature="0"
     sodipodi:nodetypes="cccccccccccccccccccccc" />
  <path
     sodipodi:nodetypes="cccccccccccccccccccccc"
     inkscape:connector-curvature="0"
     id="path36316-1-6-5-2"
     style="font-style:normal;font-variant:normal;font-weight:normal;font-stretch:normal;font-size:medium;line-height:125%;font-family:Ubuntu;-inkscape-font-specification:Ubuntu;text-align:center;letter-spacing:0px;word-spacing:0px;text-anchor:middle;display:inline;fill:#77767b;fill-opacity:1;stroke:none;stroke-width:0.00196389px;stroke-linecap:butt;stroke-linejoin:miter;stroke-opacity:1;enable-background:new"
     d="M 1.9651721,3.2526592 C 1.9443504,3.1974513 1.9246929,3.1434763 1.9062814,3.0907263 1.8878673,3.036746 1.8688632,2.9865782 1.8492454,2.9313703 H 1.2714238 L 1.1554891,3.2526592 H 0.96963109 C 1.0187036,3.1177124 1.0647071,2.9931924 1.1076468,2.8791018 1.1505787,2.7637835 1.1922935,2.654598 1.232778,2.5515452 1.2744928,2.4484951 1.3155859,2.3503527 1.3560704,2.2571155 1.396555,2.1626533 1.4388836,2.0694187 1.4830456,1.9774038 h 0.163777 c 0.044162,0.092015 0.086488,0.1852495 0.1269699,0.2797117 0.040485,0.093237 0.080972,0.1913796 0.1214563,0.2944297 0.041715,0.1030528 0.084036,0.2122383 0.1269753,0.3275566 0.042927,0.1140906 0.088941,0.2386106 0.1380104,0.3735574 z M 1.7977123,2.7850682 C 1.7584633,2.6783352 1.7192011,2.5699514 1.6799389,2.4705787 1.6419148,2.3699812 1.6020388,2.2736776 1.5603319,2.181668 1.5173948,2.2736776 1.4762938,2.3699812 1.4370342,2.4705787 1.3990102,2.5699514 1.3609729,2.6783352 1.3229436,2.7850682 Z" />
  <path
     style="color:#000000;display:inline;overflow:visible;visibility:visible;opacity:0.2;fill:#ffffff;fill-opacity:1;fill-rule:nonzero;stroke:none;stroke-width:0.26457033;marker:none;enable-background:accumulate"
     d="M 2.1167101,0.26457033 V 3.9685547 h 0.7683915 c 0.7428341,0 0.8190304,-0.076236 0.8190304,-0.8205807 V 2.1165625 1.085151 c 0,-0.74434209 -0.076199,-0.82058067 -0.8190304,-0.82058067 z"
     id="path1009"
     inkscape:connector-curvature="0" />
  <path
     style="color:#000000;display:inline;overflow:visible;visibility:visible;opacity:0.2;fill:#ffffff;fill-opacity:1;fill-rule:nonzero;stroke:none;stroke-width:0.26457033;marker:none;enable-background:accumulate"
     d="M 0.5292882,2.1165625 V 3.147974 c -0.003651,0.7443342 0.0761989,0.8205807 0.8190303,0.8205807 h 1.5367831 c 0.7428341,0 0.8190304,-0.076236 0.8190304,-0.8205807 V 2.1165625 Z"
     id="path1016"
     inkscape:connector-curvature="0" />
  <path
     transform="matrix(0.26457031,0,0,0.26457031,-84.662352,-62.438594)"
     style="color:#000000;display:inline;overflow:visible;visibility:visible;opacity:0.4;fill:none;fill-opacity:1;fill-rule:nonzero;stroke:url(#linearGradient993);stroke-width:2;stroke-miterlimit:4;stroke-dasharray:none;stroke-opacity:1;marker:none;enable-background:accumulate"
     d="m 325.09646,237 c -2.80769,0 -3.10979,0.28839 -3.09603,3.10176 V 244 v 3.89824 c -0.0138,2.81337 0.28834,3.10176 3.09603,3.10176 h 5.8075 C 333.71166,251 334,250.71165 334,247.89824 V 244 240.10176 C 334,237.28836 333.71165,237 330.90396,237 Z"
     id="path937"
     inkscape:connector-curvature="0"
     sodipodi:nodetypes="scccssscsss"
     clip-path="url(#clipPath983)" />
</svg>
